X: 14
T: Saint Kilda Wedding, The
M: 2/4
L: 1/8
Q: 180
K: D
|:"D"D/D/D DD/D/| DF AF| "Em"E/E/ E FD| "A7"B,2 A,B,| "D"D/D/D DD/D/ |
 DF AF|1 "G"B/B/ B BA|"Em"BA "A7"Bd:|2 "G"B/B/ B dc|| "Em"BA "A7"Bc |"D"dc de|
dA FA| "G"Bc dc| "Em"B2 "A7"AG| "D"FA Bc| d>c Bd| AF dF| "A"E2 DB,| "D"D d/d/
 dc| dA FA| "G"Bc dc| "Em"B2 "A7"AG| "D"FA Bc| d>c Bd| AF dF| "A"E2 DB,| "D"D4||
